X:1
T:Langkawi, 11.11 D
T:Langkawi, 11.11 D
T:Albert Lowe (1840–1886)
T:Public Domain Courtesy of the Cyber Hymnal™
C:Albert Lowe (1840–1886)
Z:Public Domain
Z:Courtesy of the Cyber Hymnal™
%%score ( 1 2 ) ( 3 4 )
L:1/8
Q:1/4=93
M:6/8
K:F
V:1 treble 
V:2 treble 
V:3 bass 
V:4 bass 
V:1
 F2 F F2 F | G3 [EG]2 z | (AG)F ([FA][EG])[DF] | c3- [Fc]2 z | AGF (EF)G | A3 A3 | %6
 (c=B)[=Fc] [Ge]2 [Fd] | [Ec]3- [Ec]2 z | (AB)[EG] F2 [A,C] | ([B,D]2 [B,E]) [A,F]3 | %10
 (FG)[FA] (Bc)[Fd] | [F_e]3- [Fe]2 z | [^Fd]2 [Fc] [GB]2 [DB] | c3 [FA]2 z | F2 F [Fd]3- | %15
 [Fd]3 [Ec]3 | F3- F3 |] %17
V:2
 F2 F F2 F | (FED) x3 | C2 F x3 | EFG x3 | AGF EFG | (AGF) (EFG) | ^F2 x4 | x6 | F2 F2 x2 | x6 | %10
 F2 F2 x2 | x6 | x6 | (EFG) x3 | F2 F x3 | x6 | F3- F3 |] %17
V:3
 (FE)[B,D] ([A,C][G,B,])[F,A,] | [C,C]3 [C,C]2 z | (CB,)[F,A,] [D,D]2 [D,F,] | (G,A,B, [F,A,]2) z | %4
 A,G,F, E,F,G, | (A,ED) (^CDE) | (_ED[A,C]) (CA,)[G,=B,] | [C,C]3- [C,C]2 z | %8
 (CD)[F,B,] [F,A,]2 F, | F,2 [F,G,] [F,A,]3 | [F,A,]2 [_E,C] [D,B,]2 [D,B,] | F, G,A, [B,,B,]2 z | %12
 [D,A,]2 [D,D] [G,D]2 G, | C3 [F,C]2 z | F,2 F, [G,,F,=B,-]3 | [G,,F,B,]3 [C,G,_B,]3 | %16
 [F,A,]3- [F,A,]3 |] %17
V:4
 F,2 x4 | x6 | F,2 x4 | C,3 x3 | (A,G,)F, (E,F,)G, | A,3 A,3 | A,2 G,2 x2 | x6 | F,2 x2 F, x | %9
 F,2 x4 | x6 | C,3 x3 | x5 G, | (C,D,E,) x3 | F,2 F, x3 | x6 | x6 |] %17

